X:1
T:My man John (a catch)
T:My man John (a catch)
T:John Eccles (1668-1735)
C:John Eccles (1668-1735)
%%score [ 1 2 3 ]
L:1/8
M:3/4
K:Bb
V:1 treble-8 nm="I"
V:2 treble-8 nm="II"
V:3 treble-8 nm="III"
V:1
|:"^Maid Mary having broke the handle of her hair broom and hearing that (manservant John)\nhad a long stick that would fit it, desired him to put it in for her." B4 A2 | %1
w: My man|
 G2 F2 E2 | F3 B A2 | B6 | d4 c2 | B2 A2 G F | G2 C2 c2 | A4 F2 | f4 e2 | d2 e2 f2 | B2 c2 d2 | %11
w: John had a|thing that was|long.|My maid|Ma- ry had a|thing that was|hair- y,|my man|John put his|thing that was|
 e4 e d | c4 f2 | (fe d2) e2 | c2 c3 B | B2 B2 z B | G2 G2 c2 | A2 F2 z2 | z2 z2 c2 | f2 f2 c2 | %20
w: long, in- to|my maid|Ma- * * ry's|thing that was|hair- y, her|thing that was|hair- y,|her|thing that was|
 A2 F4 | z6 | f4 e2 | d2 e2 f2 | B2 c2 d2 | e4 e d | c4 f2 | (fe d2) e2 | c2 c3 B | %29
w: hair- y,||my man|John put his|thing that was|long in- to|my maid|Ma- * * ry's|thing that was|
 !fermata!B4 B2 :| %30
w: hair- y.|
V:2
|: (d2 e2) f2 | B2 B2 e2 | e3 d e2 | d4 d e | f2 f2 f2 | f2 f2 f2 | f3 g =e2 | f4 c2 | A2 B2 c2 | %9
w: My _ maid|Ma- ry then|stirr'd it a-|bout, till with|stir- ring and|stir- ring at|length it came|out, but|then my man|
 d4 C3/2 D/ | E2 E2 D2 | C4 c2 | A2 A2 d2 | G2 G2 c2 | A2 F2 f2 | d4 d2 | B2 B2 e2 | c4 c2 | %18
w: John thrust it|in once a-|gain, and|knock'd it most|stout- ly to|make it re-|main, to|make it re-|main, he|
 f2 f2 c2 | A2 F2 z2 | z2 z2 c2 | f2 f2 c2 | A2 B2 c2 | d4 D2 | E2 E2 D2 | C4 c2 | A2 A2 d2 | %27
w: knock'd it most|stout- ly,|he|knock'd it to|make it re-|main, to|make it re-|main, he|knock'd it most|
 G2 G2 c2 | A2 F2 f2 | !fermata!d4 B2 :| %30
w: stout- ly to|make it re-|main. But|
V:3
|: B,2 C2 D2 | E2 F2 G2 | F3 G F2 | B,4 B B | B2 B2 A2 | d2 c2 (BA) | B2 G2 C2 | F4 F2 | F2 G2 A2 | %9
w: John with much|knock- ing so|wide- n'd the|hole, that his|long thing slip'd|out still in _|spight of his|soul, till|wear- y'd and|
 B4 B A | G2 A2 =B2 | c4 C3/2 C/ | F2 F2 D2 | B3 B E2 | F3 G F2 | B,4 B,2 | E2 E2 C2 | F6- | F6- | %19
w: vex'd, and with|knock- ing grown|sore, cry'd a|pox take the|hole, for I'll|knock it no|more, a|pox take the|hole,|_|
 F4 z2 | f2 c2 A2 | F4 F2 | F2 G2 A2 | B4 B A | G2 A2 =B2 | c4 C3/2 C/ | F2 F2 D2 | B3 B E2 | %28
w: |pox take the|hole, till|wear- y'd and|vex'd, and with|knock- ing grown|sore, cry'd a|pox take the|hole, for I'll|
 F3 G F2 | !fermata!B,6 :| %30
w: knock it no|more.|

